X: 1744
T: NED NAUGHTON'S HORNPIPE
M:2/4
L:1/16
B:O'NEILL'S 1744
N:"collected by J. O'Neill
Z:Transcribed by A. LEE WORMAN
K:D
(3A-B-c|dcde dAFA|Bcde dcBA|BGGB AFdF|EFGA GFED|
dcde fdAF|EFGA Bcde|fdcd BGEC|D2D2 D2:|
|:z2|A^GAB Acef|gefd dcBA|BGGB AFdF|EFGA GFED|
dAFA GBEG|FAdf ecAF|GBAG FDEC|D2D2 D2:|


